X:1055
T:Monmouth Street.
M:C
L:1/8
Q:1/2=104
Z:Jack Campin * www.campin.me.uk * 2009
K:G
G3A B2G2|c2e2 d2z2|g3 e edcB|AGAB A4  |
G3A B2G2|c2e2 d2z2|g3 e d3 B|dcBA G4  |
g3a g2f2|e2g2 d2z2|c3 e d2c2|BABc d2z2|
g3a g2f2|e2g2 d2z2|c2A2 B2G2|FGAB AcBA|
G3A B2G2|c2e2 d2z2|g3 e edcB|dcBA G4 |]

